X:497
T:Polska # 497
T: efter Melker Andersson
Q: 120
M:3/4
L:1/16
K: C
|:G2GF E2EF G2G2 | A2A2 B2dB c4 | G4 (f2d2) e2c2 | cBce dcBA GFEF
| G2GF E2EF G2G2 | A2A2 B2dB c4 | G4 (f2d2) e2c2 | edBd d4 c4 :|
| ecGc ecGc e2e2 | dBGB dBGB d4 | ecGc ecGc e2e2 | dBGB dBGB d4
| (cB)AB cBAB cBAB | (cB)AG A2G2 G4 | (AF)(CF) (AF)(CF) A2A2 | (GE)(CE) (GE)(CE) G4
| (AF)(CF) (AF)(CF) A2A2 | (GE)(CE) (GE)(CE) G4 | G4 (f2e2) d2c2 | cBGB d4 c4 :|

